images/no_bicycle_alt.svg

<?xml version="1.0" encoding="UTF-8" standalone="no"?>
<!-- Generator: Adobe Illustrator 18.0.0, SVG Export Plug-In . SVG Version: 6.00 Build 0)  -->

<svg xmlns:dc="http://purl.org/dc/elements/1.1/" xmlns:cc="http://creativecommons.org/ns#" xmlns:rdf="http://www.w3.org/1999/02/22-rdf-syntax-ns#" xmlns:svg="http://www.w3.org/2000/svg" xmlns="http://www.w3.org/2000/svg" xmlns:sodipodi="http://sodipodi.sourceforge.net/DTD/sodipodi-0.dtd" xmlns:inkscape="http://www.inkscape.org/namespaces/inkscape" version="1.1" id="Capa_1" x="0px" y="0px" viewBox="0 0 66.188 69.188" xml:space="preserve" sodipodi:docname="no_bicycle_alt.svg" inkscape:version="0.92.4 (5da689c313, 2019-01-14)" width="66.188004" height="69.188004"><metadata id="metadata39"><rdf:RDF><cc:Work rdf:about=""><dc:format>image/svg+xml</dc:format><dc:type rdf:resource="http://purl.org/dc/dcmitype/StillImage" /><dc:title></dc:title></cc:Work></rdf:RDF></metadata><defs id="defs37" /><sodipodi:namedview pagecolor="#ffffff" bordercolor="#666666" borderopacity="1" objecttolerance="10" gridtolerance="10" guidetolerance="10" inkscape:pageopacity="0" inkscape:pageshadow="2" inkscape:window-width="1881" inkscape:window-height="1056" id="namedview35" showgrid="false" inkscape:zoom="27.287968" inkscape:cx="24.091186" inkscape:cy="15.21227" inkscape:window-x="0" inkscape:window-y="0" inkscape:window-maximized="1" inkscape:current-layer="Capa_1" inkscape:pagecheckerboard="true" /><circle style="opacity:1;fill:#ffffff;fill-opacity:1;fill-rule:nonzero;stroke:#fe0000;stroke-width:1;stroke-linecap:round;stroke-linejoin:round;stroke-miterlimit:4;stroke-dasharray:none;stroke-dashoffset:0;stroke-opacity:1;paint-order:normal" id="path1464" cx="20.045464" cy="49.98539" r="5.4969273" /><path style="fill:#000000;fill-opacity:1;stroke:#000000;stroke-width:0.1;stroke-miterlimit:4;stroke-dasharray:none;stroke-opacity:1" d="M 23.585443,49.149088 C 23.515604,49.149088 23.446578,49.152832 23.378529,49.159507 L 22.838696,46.911285 C 22.812323,46.801561 22.713994,46.724233 22.601175,46.724233 H 21.760982 C 21.626187,46.724233 21.516787,46.833632 21.516787,46.968427 C 21.516787,47.103223 21.626187,47.212622 21.760982,47.212622 H 22.408749 L 22.591407,47.973533 H 18.949809 L 18.765687,47.311277 H 19.443898 C 19.578693,47.311277 19.688092,47.201878 19.688092,47.067082 C 19.688092,46.932286 19.578693,46.822888 19.443898,46.822888 H 18.444326 C 18.367975,46.822888 18.296181,46.858539 18.249947,46.919426 C 18.203876,46.980149 18.188736,47.058942 18.209085,47.132527 L 18.503747,48.192658 L 17.51606,49.442773 C 17.206258,49.257673 16.845663,49.149251 16.45951,49.149251 C 15.318631,49.149088 14.390691,50.077355 14.390691,51.21807 C 14.390691,52.358786 15.318631,53.286727 16.459348,53.286727 C 17.532503,53.286727 18.417139,52.465092 18.518073,51.417984 H 19.585694 C 19.585856,51.417984 19.586019,51.417984 19.586182,51.417984 C 19.607671,51.417984 19.629486,51.415216 19.651137,51.409193 C 19.657161,51.407565 19.662534,51.404635 19.668232,51.402519 C 19.672464,51.401054 19.676371,51.399425 19.680604,51.397797 C 19.705674,51.387216 19.728141,51.373053 19.747513,51.355795 C 19.748816,51.354657 19.750606,51.354168 19.751909,51.353028 L 22.737762,48.583207 L 22.902186,49.26793 C 22.096831,49.551196 21.51695,50.317317 21.51695,51.218232 C 21.51695,52.358949 22.44489,53.286889 23.585605,53.286889 C 24.726322,53.286889 25.654263,52.358949 25.654263,51.218232 C 25.654263,50.077517 24.72616,49.149088 23.585443,49.149088 Z M 18.66573,48.775307 L 19.264496,50.929432 H 18.505702 C 18.440583,50.466275 18.223249,50.051795 17.903679,49.739551 Z M 17.59876,50.125541 C 17.807792,50.343526 17.95496,50.620607 18.012264,50.929432 H 16.963692 Z M 16.459348,52.798336 C 15.587897,52.798336 14.879082,52.089357 14.879082,51.21807 C 14.879082,50.346783 15.587897,49.63764 16.459348,49.63764 C 16.731381,49.63764 16.98746,49.706829 17.211305,49.828275 L 16.267736,51.022389 C 16.20978,51.09581 16.19871,51.195929 16.239572,51.280258 C 16.280271,51.364425 16.365577,51.417984 16.459348,51.417984 H 18.025776 C 17.926959,52.195013 17.262912,52.798336 16.459348,52.798336 Z M 19.713651,50.721866 L 19.085582,48.462086 H 22.149903 Z M 23.585443,52.798336 C 22.713994,52.798336 22.005177,52.089521 22.005177,51.21807 C 22.005177,50.547348 22.425844,49.974304 23.016632,49.745249 L 23.347924,51.125275 C 23.374947,51.23728 23.474905,51.312329 23.585281,51.312329 C 23.604002,51.312329 23.623212,51.31005 23.642585,51.305654 C 23.773636,51.274235 23.854545,51.142207 23.822964,51.010992 L 23.494277,49.642198 C 23.524558,49.640409 23.554675,49.63764 23.585443,49.63764 C 24.456894,49.63764 25.165711,50.34662 25.165711,51.21807 C 25.165711,52.089521 24.456894,52.798336 23.585443,52.798336 Z" id="path2" inkscape:connector-curvature="0" /></svg>

<svg xmlns="http://www.w3.org/2000/svg" width="66.188" height="69.188">
    <circle cx="20.045" cy="49.985" r="5.497" fill="#fff" stroke="#fe0000" stroke-linecap="round" stroke-linejoin="round"/>
    <path d="M23.585 49.15c-.07 0-.138.003-.206.01l-.54-2.249a.244.244 0 00-.238-.187h-.84a.244.244 0 000 .489h.648l.182.76H18.95l-.184-.662h.678a.244.244 0 000-.488h-1a.244.244 0 00-.235.31l.295 1.06-.988 1.25a2.053 2.053 0 00-1.056-.294c-1.141 0-2.07.928-2.07 2.07a2.07 2.07 0 002.07 2.068 2.071 2.071 0 002.058-1.869h1.068s0 0 0 0a.242.242 0 00.065-.009c.006-.001.012-.004.017-.006l.013-.005a.241.241 0 00.067-.042l.004-.003 2.986-2.77.164.685a2.07 2.07 0 00-1.385 1.95 2.07 2.07 0 002.069 2.069 2.07 2.07 0 002.068-2.069c0-1.14-.928-2.069-2.069-2.069zm-4.92-.375l.6 2.154h-.76a2.063 2.063 0 00-.601-1.19zm-1.066 1.35c.209.219.356.496.413.804h-1.048zm-1.14 2.673c-.871 0-1.58-.709-1.58-1.58a1.582 1.582 0 012.332-1.39l-.943 1.194a.244.244 0 00.191.396h1.567a1.582 1.582 0 01-1.567 1.38zm3.255-2.076l-.628-2.26h3.064zm3.871 2.076c-.871 0-1.58-.708-1.58-1.58 0-.67.42-1.244 1.012-1.473l.33 1.38a.244.244 0 00.476-.114l-.329-1.369a1.582 1.582 0 011.671 1.576 1.58 1.58 0 01-1.58 1.58z" stroke="#000" stroke-width=".1"/>
</svg>
